!!!COM:	la Rue, Pierre de
!!!CDT:	~1452///-1518/11/20
!!!OTL:	Salve regina VI
!!!AGN:	Motet
!!!SCT:	Rue2026
!!!SCA:	Rue2026
!!!voices:	4
**kern	**text	**kern	**text	**kern	**text	**kern	**text
*staff4	*staff4	*staff3	*staff3	*staff2	*staff2	*staff1	*staff1
*Ivox	*	*Ivox	*	*Ivox	*	*Ivox	*
*I"Bassus	*	*I"Tenor	*	*I"Contra	*	*I"Discantus	*
*I'B	*	*I'T	*	*I'C	*	*I'D	*
*>[A,B]	*>[A,B]	*>[A,B]	*>[A,B]	*>[A,B]	*>[A,B]	*>[A,B]	*>[A,B]
*>A	*>A	*>A	*>A	*>A	*>A	*>A	*>A
*clefF4	*	*clefGv2	*	*clefGv2	*	*clefG2	*
*k[b-]	*	*k[b-]	*	*k[b-]	*	*k[b-]	*
*M3/1	*	*M3/1	*	*M3/1	*	*M3/1	*
*met(O)	*	*met(O)	*	*met(O)	*	*met(O)	*
!!section: Salve regina
!!!OMD: Salve regina
=1-	=1-	=1-	=1-	=1-	=1-	=1-	=1-
0.r	.	0.r	.	1.d	Sal-	1.d	Sal-
.	.	.	.	2c\	.	2e/	.
.	.	.	.	1d	.	1f	.
=2	=2	=2	=2	=2	=2	=2	=2
0.r	.	0.r	.	1G	-ve,	1g	-ve,
.	.	.	.	1.d	re-	2r	.
.	.	.	.	.	.	1f	re-
.	.	.	.	[2c\	.	2g/	.
=3	=3	=3	=3	=3	=3	=3	=3
0.r	.	0.r	.	2c\]	.	1a	-gi-
.	.	.	.	4B-\	-gi-	.	.
.	.	.	.	4A/	.	.	.
.	.	.	.	4G/	-na,	1.b-	.
.	.	.	.	4A/	.	.	.
.	.	.	.	4B-\	.	.	.
.	.	.	.	4c\	.	.	.
.	.	.	.	[1d	mi-	.	.
.	.	.	.	.	.	[2a/	-na,
=4	=4	=4	=4	=4	=4	=4	=4
0.r	.	0.r	.	1d]	.	2a/]	.
.	.	.	.	.	.	1b-	mi-
.	.	.	.	4G/	-se-	.	.
.	.	.	.	4A/	.	.	.
.	.	.	.	4B-\	.	4a/	.
.	.	.	.	4c\	.	4g/	.
.	.	.	.	[1d	-ri-	2f/	-se-
.	.	.	.	.	.	4d/	-ri-
.	.	.	.	.	.	4e/	.
=5	=5	=5	=5	=5	=5	=5	=5
1.D	Vi-	0.r	.	1d]	.	4f/	.
.	.	.	.	.	.	4g/	.
.	.	.	.	.	.	2.a/	-cor-
.	.	.	.	2B-\	-cor-	.	.
.	.	.	.	.	.	4d/	.
2C/	.	.	.	2c\	.	1g	.
1D	.	.	.	1A	-di-	.	.
.	.	.	.	.	.	2f#i/	-di-
=6	=6	=6	=6	=6	=6	=6	=6
1GG	-ta,	1r	.	1G	-e.	1g	-e.
2r	.	1.d	Vi-	1r	.	1r	.
1D	dul-	.	.	.	.	.	.
.	.	.	.	1r	.	1r	.
2E\	.	[2c\	-ta,	.	.	.	.
=7	=7	=7	=7	=7	=7	=7	=7
1F	-ce-	2c\]	.	0.r	.	0.r	.
.	.	4B-\	dul-	.	.	.	.
.	.	4A/	.	.	.	.	.
0G	-do,	2B-\	-ce-	.	.	.	.
.	.	4G/	.	.	.	.	.
.	.	4A/	.	.	.	.	.
.	.	4B-\	.	.	.	.	.
.	.	4c\	.	.	.	.	.
.	.	[2d\	.	.	.	.	.
=8	=8	=8	=8	=8	=8	=8	=8
2.F\	et	2d\]	.	0.r	.	0.r	.
.	.	2.c\	-do,	.	.	.	.
4E\	.	.	.	.	.	.	.
2.F\	spes	.	.	.	.	.	.
.	.	4B-\	.	.	.	.	.
.	.	2.c\	.	.	.	.	.
4E\	.	.	.	.	.	.	.
2F\	.	.	.	.	.	.	.
.	.	4B-\	.	.	.	.	.
[2F\	no-	4c\	.	.	.	.	.
.	.	4B-\	.	.	.	.	.
=9	=9	=9	=9	=9	=9	=9	=9
4F\]	.	4A/	.	0.r	.	0.r	.
4E\	.	4G/	.	.	.	.	.
2.F\	.	2F/	.	.	.	.	.
.	.	2c\	et	.	.	.	.
4E\	.	.	.	.	.	.	.
4D\	.	1d	spes	.	.	.	.
4C/	.	.	.	.	.	.	.
2BB-/	.	.	.	.	.	.	.
2AA/	-stra,	2c\	no-	.	.	.	.
=10	=10	=10	=10	=10	=10	=10	=10
1D	sal-	2B-\	-stra,	0.r	.	0.r	.
.	.	2.A/	sal-	.	.	.	.
2C/	.	.	.	.	.	.	.
.	.	4G/	.	.	.	.	.
2BB-/	.	1G	.	.	.	.	.
1AA	.	.	.	.	.	.	.
.	.	2F#i/	.	.	.	.	.
=11	=11	=11	=11	=11	=11	=11	=11
0GG	-ve.	0G	-ve.	0d	Ad	0b-	Ad
1r	.	1r	.	1e	te	1cc	te
=12	=12	=12	=12	=12	=12	=12	=12
0.r	.	0.r	.	1d	cla-	1.dd	cla-
.	.	.	.	1f	-ma-	.	.
.	.	.	.	.	.	1cc	.
.	.	.	.	1e	.	.	.
.	.	.	.	.	.	4b-\	.
.	.	.	.	.	.	4a/	.
=13	=13	=13	=13	=13	=13	=13	=13
0.r	.	0.r	.	2.d\	.	2b-\	.
.	.	.	.	.	.	2.a/	-ma-
.	.	.	.	4c\	.	.	.
.	.	.	.	2.d\	.	.	.
.	.	.	.	.	.	4g/	.
.	.	.	.	.	.	2.a/	.
.	.	.	.	4c\	.	.	.
.	.	.	.	2.d\	.	.	.
.	.	.	.	.	.	4g/	.
.	.	.	.	.	.	[2a/	.
.	.	.	.	4c\	.	.	.
=14	=14	=14	=14	=14	=14	=14	=14
0.r	.	1r	.	4d\	.	4a/]	.
.	.	.	.	4e\	.	4g/	.
.	.	.	.	1f	.	4a/	.
.	.	.	.	.	.	4b-\	.
.	.	1r	.	.	.	2cc\	.
.	.	.	.	2d\	.	1b-	.
.	.	1c	Ex-	1e	.	.	.
.	.	.	.	.	.	2a/	.
=15	=15	=15	=15	=15	=15	=15	=15
1G	Ex-	1B-	-su-	1d	-mus.	1b-	-mus.
1F	-su-	1A	.	1r	.	1r	.
1E	.	1G	-les,	1r	.	1r	.
=16	=16	=16	=16	=16	=16	=16	=16
1D	-les,	2r	.	0.r	.	0.r	.
.	.	2A/	fi-	.	.	.	.
2r	.	2B-\	-li-	.	.	.	.
2E\	fi-	1c	-i	.	.	.	.
2F\	-li-	.	.	.	.	.	.
[2G\	-i	[2B-\	He-	.	.	.	.
=17	=17	=17	=17	=17	=17	=17	=17
2G\]	.	2B-\]	.	1r	.	1r	.
4F\	.	4A/	.	.	.	.	.
4E\	.	4G/	.	.	.	.	.
1F	He-	1A	.	1r	.	1cc	Ad
1G	-ve.	1G	-ve.	1g	Ad	2b-\	te
.	.	.	.	.	.	2g/	.
=18	=18	=18	=18	=18	=18	=18	=18
0.r	.	0.r	.	2f\	te	2a/	su-
.	.	.	.	2d\	.	2b-\	-spi-
.	.	.	.	2e\	su-	2.cc\	-ra-
.	.	.	.	2f\	-spi-	.	.
.	.	.	.	.	.	4a/	.
.	.	.	.	2g\	-ra-	2b-\	.
.	.	.	.	2e\	.	2g/	.
=19	=19	=19	=19	=19	=19	=19	=19
1r	.	0.r	.	2f\	.	4f/	.
.	.	.	.	.	.	4g/	.
.	.	.	.	2d\	.	4a/	.
.	.	.	.	.	.	4b-\	.
2r	.	.	.	2c\	.	2cc\	.
2D\	Ge-	.	.	2.d\	.	1b-	.
2E\	-men-	.	.	.	.	.	.
.	.	.	.	4c\	.	.	.
2F\	.	.	.	4B-\	.	[2a/	.
.	.	.	.	4A/	.	.	.
=20	=20	=20	=20	=20	=20	=20	=20
1G	-tes	1r	.	1B-	.	2a/]	.
.	.	.	.	.	.	2g/	.
2r	.	2r	.	1A	-mus,	1a	-mus,
1D	et	2A/	Ge-	.	.	.	.
.	.	2B-\	-men-	1r	.	1r	.
2E\	flen-	2c\	.	.	.	.	.
=21	=21	=21	=21	=21	=21	=21	=21
2F\	.	1d	-tes	0.r	.	0.r	.
2.G\	.	.	.	.	.	.	.
.	.	2r	.	.	.	.	.
4F\	.	.	.	.	.	.	.
4E\	.	1A	et	.	.	.	.
4D\	.	.	.	.	.	.	.
2C/	.	.	.	.	.	.	.
2BB-/	.	2B-\	flen-	.	.	.	.
=22	=22	=22	=22	=22	=22	=22	=22
1F	.	2c\	.	1r	.	2r	.
.	.	1.d	.	.	.	1a	et
2D\	.	.	.	0f	in	.	.
2BB-/	.	.	.	.	.	2b-\	flen-
2F\	.	2c\	.	.	.	2cc\	.
[2BB-/	-tes	[2B-\	.	.	.	[2dd\	.
=23	=23	=23	=23	=23	=23	=23	=23
2BB-/]	.	2B-\]	.	1d	hac	4dd\]	.
.	.	.	.	.	.	4cc\	.
2BB-/	in	1B-	.	.	.	4b-\	.
.	.	.	.	.	.	4a/	.
2C/	hac	.	.	2e\	la-	2g/	.
2D\	.	2A/	.	1d	.	1f	-tes
[1BB-	la-	[1B-	-tes	.	.	.	.
.	.	.	.	2d\	-cri-	2f/	in
=24	=24	=24	=24	=24	=24	=24	=24
1BB-]	.	1B-]	.	2d\	-ma-	2g/	hac
.	.	.	.	2.f\	.	1b-	la-
1F	-cri-	1c	in	.	.	.	.
.	.	.	.	4e\	.	.	.
.	.	.	.	4d\	.	2a/	-cri-
.	.	.	.	4c\	.	.	.
2.BB-/	-ma-	[1B-	hac	1d	.	[1b-	-ma-
4C/	.	.	.	.	.	.	.
=25	=25	=25	=25	=25	=25	=25	=25
2D\	.	2B-\]	.	2d\	.	2b-\]	.
2.C/	.	4A/	.	1e	.	2.cc\	.
.	.	4G/	.	.	.	.	.
.	.	2.c\	la-	.	.	.	.
4D\	.	.	.	.	.	4b-\	.
4E\	.	.	.	2e\	.	4g/	.
4F\	.	4B-\	.	.	.	4a/	.
1G	-rum	4G/	-cri-	1d	.	2.b-\	.
.	.	4A/	.	.	.	.	.
.	.	[2B-\	-ma-	.	.	.	.
.	.	.	.	.	.	4a/	.
=26	=26	=26	=26	=26	=26	=26	=26
1D	val-	4B-\]	.	2d\	-rum	4f/	.
.	.	4A/	.	.	.	4g/	.
.	.	2F/	-rum	1d	val-	1a	-rum
1E	.	1G	val-	.	.	.	.
.	.	.	.	2c\	.	1g	val-
1D	.	1A	.	1d	.	.	.
.	.	.	.	.	.	2f#i/	.
=27	=27	=27	=27	=27	=27	=27	=27
0.GG	-le.	0.G	-le.	0d	-le.	0g	-le.
.	.	.	.	1r	.	2r	.
.	.	.	.	.	.	[2b-\	E-
=28	=28	=28	=28	=28	=28	=28	=28
0.r	.	0.r	.	2.d\	E-	2b-\]	.
.	.	.	.	.	.	2b-\	-ia
.	.	.	.	4e\	.	.	.
.	.	.	.	2f\	-ia	2a/	er-
.	.	.	.	1g	er-	2g/	.
.	.	.	.	.	.	1b-	-go,
.	.	.	.	4d\	.	.	.
.	.	.	.	4e\	.	.	.
=29	=29	=29	=29	=29	=29	=29	=29
0.r	.	0.r	.	2f\	-go,	2a/	ad
.	.	.	.	1g	ad	2g/	vo-
.	.	.	.	.	.	2.b-\	-ca-
.	.	.	.	1d	vo-	.	.
.	.	.	.	.	.	4a/	.
.	.	.	.	.	.	2.f/	.
.	.	.	.	[2f\	-ca-	.	.
.	.	.	.	.	.	4g/	.
=30	=30	=30	=30	=30	=30	=30	=30
0.r	.	0.r	.	2f\]	.	4a/	.
.	.	.	.	.	.	4b-\	.
.	.	.	.	2c\	.	2cc\	.
.	.	.	.	2d\	.	2b-\	-ta
.	.	.	.	2A/	-ta	1a	no-
.	.	.	.	1B-	no-	.	.
.	.	.	.	.	.	2g/	.
=31	=31	=31	=31	=31	=31	=31	=31
2.D\	Il-	1d	Il-	1A	-stra,	1a	-stra,
4E\	.	.	.	.	.	.	.
2F\	.	0d	-los	1r	.	1r	.
1G	-los	.	.	.	.	.	.
.	.	.	.	1r	.	2.d/	il-
2B-\	tu-	.	.	.	.	.	.
.	.	.	.	.	.	4e/	.
=32	=32	=32	=32	=32	=32	=32	=32
2A\	.	2c\	tu-	0.r	.	2f/	.
2G\	.	2B-\	.	.	.	1g	-los
2.B-\	.	0d	-os	.	.	.	.
.	.	.	.	.	.	2b-\	tu-
4A\	.	.	.	.	.	.	.
2F\	.	.	.	.	.	2a/	.
[2G\	.	.	.	.	.	2g/	.
=33	=33	=33	=33	=33	=33	=33	=33
2G\]	.	2B-\	mi-	0.r	.	2.b-\	.
4F\	.	2c\	.	.	.	.	.
4E\	.	.	.	.	.	4a/	.
1D	.	1d	-se-	.	.	4f/	.
.	.	.	.	.	.	4g/	.
.	.	.	.	.	.	2.a/	.
1F	-os	2.A/	-ri-	.	.	.	.
.	.	.	.	.	.	4b-\	.
.	.	.	.	.	.	4cc\	.
.	.	4F/	.	.	.	4dd\	.
=34	=34	=34	=34	=34	=34	=34	=34
2r	.	2G/	-cor-	1r	.	2b-\	.
2F\	mi-	2A/	.	.	.	1a	.
1G	-se-	1B-	.	2.d\	o-	.	.
.	.	.	.	.	.	2g/	.
.	.	.	.	4e\	.	.	.
2.D\	-ri-	2A/	-des	4f\	.	1a	-os
.	.	.	.	4g\	.	.	.
.	.	[2d\	o-	[2f\	.	.	.
4E\	.	.	.	.	.	.	.
=35	=35	=35	=35	=35	=35	=35	=35
4F\	-cor-	2d\]	.	2f\]	.	2r	.
4G\	.	.	.	.	.	.	.
1F	-des	1c	.	4e\	.	2a/	mi-
.	.	.	.	4d\	.	.	.
.	.	.	.	1f	-cu-	2a/	-se-
4E\	o-	2.B-\	.	.	.	2b-\	-ri-
4D\	.	.	.	.	.	.	.
1C	-cu-	.	.	1e	-los	1cc	-cor-
.	.	4A/	.	.	.	.	.
.	.	2A/	-cu-	.	.	.	.
=36	=36	=36	=36	=36	=36	=36	=36
0BB-	-los	[0.B-	-los	1.d	ad	1dd	-des
.	.	.	.	.	.	2dd\	o-
.	.	.	.	2.f\	.	2.dd\	-cu-
2r	.	.	.	.	.	.	.
.	.	.	.	4e\	.	4cc\	.
2BB-/	ad	.	.	4d\	.	4b-\	.
.	.	.	.	4c\	.	4a/	.
=37	=37	=37	=37	=37	=37	=37	=37
1E-	nos	1B-]	.	1B-	nos	1g	-los
1E-i	con-	0G	.	2r	.	2r	.
.	.	.	.	2B-\	ad	2g/	ad
[1C	-ver-	.	.	1e-	nos	[1cc	nos
=38	=38	=38	=38	=38	=38	=38	=38
1C]	.	2r	.	1e-i	con-	1cc]	.
.	.	1c	ad	.	.	.	.
1F	.	.	.	2c\	.	2a/	con-
.	.	1A	nos	1d	-ver-	2dd\	-ver-
1E	.	.	.	.	.	4cc\	.
.	.	.	.	.	.	4b-\	.
.	.	2G/	con-	2c\	.	4a/	.
.	.	.	.	.	.	4g/	.
=39	=39	=39	=39	=39	=39	=39	=39
2D\	.	2A/	-ver-	2.d\	.	2f/	.
2G\	.	2B-\	.	.	.	2b-\	.
.	.	.	.	4e\	.	.	.
2F\	.	4c\	.	4f\	.	2a/	.
.	.	4B-\	.	2d\	.	.	.
2E\	.	4A/	.	.	.	1g	.
.	.	4G/	.	4c\	.	.	.
1D	.	1A	.	1d	.	.	.
.	.	.	.	.	.	2f#i/	.
=40	=40	=40	=40	=40	=40	=40	=40
0.GGl	-te.	0.Gl	-te.	0.dl	-te.	0.gl	-te.
!!LO:LB:i:g=z
=41||	=41||	=41||	=41||	=41||	=41||	=41||	=41||
*>B	*>B	*>B	*>B	*>B	*>B	*>B	*>B
*clefF4	*	*clefGv2	*	*clefGv2	*	*clefG2	*
*k[b-]	*	*k[b-]	*	*k[b-]	*	*k[b-]	*
*M2/1	*	*M2/1	*	*M2/1	*	*M2/1	*
*met(C2)	*	*met(C2)	*	*met(C2)	*	*met(C2)	*
!!section: Et Jesum
!!!OMD: Et Jesum
0r	.	0r	.	1d	Et	1.a	Et
.	.	.	.	1A	Je-	.	.
.	.	.	.	.	.	4g/	.
.	.	.	.	.	.	4f/	.
=42.	=42	=42.	=42	=42.	=42	=42.	=42
0r	.	0r	.	0c	-sum,	2e/	.
.	.	.	.	.	.	2.a/	Je-
.	.	.	.	.	.	4g/	.
.	.	.	.	.	.	4f/	.
.	.	.	.	.	.	4e/	.
=43	=43	=43	=43	=43	=43	=43	=43
1G	Et	1.d	Et	0d	.	0d	-sum,
1D	Je-	.	.	.	.	.	.
.	.	4c\	.	.	.	.	.
.	.	4B-\	.	.	.	.	.
=44.	=44	=44.	=44	=44.	=44	=44.	=44
0F	-sum,	2A/	.	0r	.	1r	.
.	.	2.d\	Je-	.	.	.	.
.	.	.	.	.	.	1a	be-
.	.	4c\	.	.	.	.	.
.	.	4B-\	.	.	.	.	.
.	.	4A/	.	.	.	.	.
=45	=45	=45	=45	=45	=45	=45	=45
0G	.	0G	-sum,	1r	.	1b-	.
.	.	.	.	1d	be-	1dd	-ne-
=46.	=46	=46.	=46	=46.	=46	=46.	=46
1r	.	0r	.	2.e\	-ne-	1cc	-di-
.	.	.	.	4f\	.	.	.
1G	be-	.	.	2g\	.	1b-	.
.	.	.	.	[2e\	-di-	.	.
=47	=47	=47	=47	=47	=47	=47	=47
1F	-ne-	0r	.	2e\]	.	1a	.
.	.	.	.	1d	.	.	.
1E	-di-	.	.	.	.	1g	.
.	.	.	.	2c#i\	.	.	.
=48.	=48	=48.	=48	=48.	=48	=48.	=48
0D	.	1A	be-	0d	-ctum	0f	-ctum
.	.	1B-	-ne-	.	.	.	.
=49	=49	=49	=49	=49	=49	=49	=49
[0C	-ctum	1.c	-di-	1r	.	1r	.
.	.	.	.	[1e	fru-	1g	fru-
.	.	2B-\	-ctum	.	.	.	.
=50.	=50	=50.	=50	=50.	=50	=50.	=50
0C]	.	2A/	fru-	2e\]	.	2a/	.
.	.	2G/	-ctum	4d\	.	2.cc\	.
.	.	.	.	4c\	.	.	.
.	.	2.c\	ven-	2e\	.	.	.
.	.	.	.	.	.	4b-\	.
.	.	.	.	[2c\	-ctum	4a/	.
.	.	4B-\	.	.	.	4g/	.
=51	=51	=51	=51	=51	=51	=51	=51
1r	.	1A	.	2c\]	.	1f	-ctum
.	.	.	.	1f	ven-	.	.
1C	ven-	1G	-tris	.	.	1g	.
.	.	.	.	2e\	-tris	.	.
=52.	=52	=52.	=52	=52.	=52	=52.	=52
0F	-tris	2.F/	tu-	0f	tu-	2.a/	ven-
.	.	4G/	.	.	.	4b-\	.
.	.	4A/	.	.	.	2cc\	.
.	.	4B-\	.	.	.	.	.
.	.	[2c\	.	.	.	[2a/	-tris
=53	=53	=53	=53	=53	=53	=53	=53
1G	tu-	4c\]	.	2e\	.	2a/]	.
.	.	4B-\	.	.	.	.	.
.	.	4A/	.	2d\	.	1g	tu-
.	.	4G/	.	.	.	.	.
1D	.	1A	.	1d	-i,	.	.
.	.	.	.	.	.	2f#i/	.
=54.	=54	=54.	=54	=54.	=54	=54.	=54
0GG	-i,	0G	-i,	1r	.	1g	-i,
.	.	.	.	1G	no-	2r	.
.	.	.	.	.	.	[2b-\	no-
=55	=55	=55	=55	=55	=55	=55	=55
0r	.	0r	.	1d	.	4b-\]	.
.	.	.	.	.	.	4a/	.
.	.	.	.	.	.	1dd	.
.	.	.	.	1e	.	.	.
.	.	.	.	.	.	2cc\	.
=56.	=56	=56.	=56	=56.	=56	=56.	=56
0r	.	0r	.	1d	-bis	2dd\	-bis
.	.	.	.	.	.	1a	post
.	.	.	.	[1f	post	.	.
.	.	.	.	.	.	[2dd\	hoc
=57	=57	=57	=57	=57	=57	=57	=57
1r	.	0r	.	1f]	.	2dd\]	.
.	.	.	.	.	.	2.cc\	ex-
1C	post	.	.	1e	.	.	.
.	.	.	.	.	.	4b-\	.
.	.	.	.	.	.	4a/	.
.	.	.	.	.	.	4g/	.
=58.	=58	=58.	=58	=58.	=58	=58.	=58
1D	hoc	0A	post	1d	hoc	1f	-i-
1C	.	.	.	1r	.	1e	-li-
=59	=59	=59	=59	=59	=59	=59	=59
0BB-	ex-	[0B-	hoc	1.f	ex-	0d	-um,
.	.	.	.	4e\	.	.	.
.	.	.	.	4d\	.	.	.
=60.	=60	=60.	=60	=60.	=60	=60.	=60
1BB-	-i-	0B-]	.	2f\	.	1d	post
.	.	.	.	1d	.	.	.
1BB-	-li-	.	.	.	.	[1f	hoc
.	.	.	.	4c\	.	.	.
.	.	.	.	4B-\	.	.	.
=61	=61	=61	=61	=61	=61	=61	=61
2.BB-/	-um,	0B-	ex-	1.d	-i-	2f/]	.
.	.	.	.	.	.	4e/	.
4C/	.	.	.	.	.	4d/	.
2D\	.	.	.	.	.	2f/	ex-
[2E-\	post	.	.	2G/	.	[2g/	-i-
=62.	=62	=62.	=62	=62.	=62	=62.	=62
4E-\]	.	1B-	-i-	1d	.	4g/]	.
4D\	.	.	.	.	.	4f/	.
2BB-/	.	.	.	.	.	1b-	.
1F	hoc	1c	.	1c	.	.	.
.	.	.	.	.	.	2a/	.
=63	=63	=63	=63	=63	=63	=63	=63
2BB-/	ex-	0d	.	0B-	-li-	2.b-\	.
2.G\	-i-	.	.	.	.	.	.
.	.	.	.	.	.	4a/	.
.	.	.	.	.	.	2g/	.
4F\	.	.	.	.	.	.	.
4E-i\	.	.	.	.	.	2f/	.
4D\	.	.	.	.	.	.	.
=64.	=64	=64.	=64	=64.	=64	=64.	=64
0C	-li-	0e-i	.	0c	.	2.cc\	.
.	.	.	.	.	.	4b-\	.
.	.	.	.	.	.	2a/	.
.	.	.	.	.	.	2g/	-li-
=65	=65	=65	=65	=65	=65	=65	=65
0D	.	2.d\	.	1A	-um,	0f	-um
.	.	4c\	.	.	.	.	.
.	.	2B-\	.	1d	o-	.	.
.	.	2A/	-li-	.	.	.	.
=66.	=66	=66.	=66	=66.	=66	=66.	=66
1Eni	-um,	1G	-um,	2.c\	-sten-	1.g	o-
.	.	.	.	4d\	.	.	.
2E\	o-	2G/	o-	2e\	.	.	.
[2F\	-sten-	[2c\	-sten-	[2A/	.	[2a/	-sten-
=67	=67	=67	=67	=67	=67	=67	=67
4F\]	.	4c\]	.	4A/]	.	2a/]	.
4G\	.	4B-\	.	4B-\	.	.	.
2E\	.	2G/	.	2c\	.	2.g/	.
1D	.	1A	.	1d	.	.	.
.	.	.	.	.	.	4f#i/	.
.	.	.	.	.	.	2f#i/	.
=68.	=68	=68.	=68	=68.	=68	=68.	=68
0GG	-de.	0G	-de.	0d	-de.	0g	-de.
=69	=69	=69	=69	=69	=69	=69	=69
[0D	O	2r	.	0r	.	0r	.
.	.	2A/	O	.	.	.	.
.	.	2B-\	.	.	.	.	.
.	.	[2A/	cle-	.	.	.	.
=70.	=70	=70.	=70	=70.	=70	=70.	=70
1D]	.	4A/]	.	0r	.	0r	.
.	.	8B-\L	.	.	.	.	.
.	.	8c\J	.	.	.	.	.
.	.	1d	.	.	.	.	.
1E	.	.	.	.	.	.	.
.	.	2c\	.	.	.	.	.
=71	=71	=71	=71	=71	=71	=71	=71
2r	.	1d	.	0r	.	0r	.
2D\	.	.	.	.	.	.	.
2E\	.	2c\	.	.	.	.	.
[2D\	cle-	[2d\	.	.	.	.	.
=72.	=72	=72.	=72	=72.	=72	=72.	=72
4D\]	.	2d\]	.	0r	.	0r	.
8E\L	.	.	.	.	.	.	.
8F\J	.	.	.	.	.	.	.
1G	.	4c\	.	.	.	.	.
.	.	4B-\	.	.	.	.	.
.	.	1A	-mens:	.	.	.	.
2F#i\	.	.	.	.	.	.	.
=73	=73	=73	=73	=73	=73	=73	=73
1G	-mens:	2r	.	0r	.	0r	.
.	.	2G/	O	.	.	.	.
[1C	O	2A/	.	.	.	.	.
.	.	[2G/	pi-	.	.	.	.
=74.	=74	=74.	=74	=74.	=74	=74.	=74
1C]	.	4G/]	.	0r	.	0r	.
.	.	8A/L	.	.	.	.	.
.	.	8B-/J	.	.	.	.	.
.	.	1c	.	.	.	.	.
1D	.	.	.	.	.	.	.
.	.	2B-\	.	.	.	.	.
=75	=75	=75	=75	=75	=75	=75	=75
2.C/	pi-	2A/	.	0r	.	0r	.
.	.	2.G/	.	.	.	.	.
4D\	.	.	.	.	.	.	.
2E\	.	.	.	.	.	.	.
.	.	4F/	.	.	.	.	.
[2D\	.	4E/	.	.	.	.	.
.	.	4D/	.	.	.	.	.
=76.	=76	=76.	=76	=76.	=76	=76.	=76
2D\]	.	1E	.	0r	.	0r	.
2C#i/	.	.	.	.	.	.	.
1D	-a:	1D	-a:	.	.	.	.
=77	=77	=77	=77	=77	=77	=77	=77
0r	.	0r	.	[0d	O	2r	.
.	.	.	.	.	.	2a/	O
.	.	.	.	.	.	2b-\	.
.	.	.	.	.	.	[2a/	cle-
=78.	=78	=78.	=78	=78.	=78	=78.	=78
0r	.	0r	.	1d]	.	4a/]	.
.	.	.	.	.	.	8b-\L	.
.	.	.	.	.	.	8cc\J	.
.	.	.	.	.	.	1dd	.
.	.	.	.	1e	.	.	.
.	.	.	.	.	.	2cc\	.
=79	=79	=79	=79	=79	=79	=79	=79
0r	.	0r	.	2r	.	1dd	.
.	.	.	.	2d\	.	.	.
.	.	.	.	2e\	.	2cc\	.
.	.	.	.	[2d\	cle-	[2dd\	.
=80.	=80	=80.	=80	=80.	=80	=80.	=80
0r	.	0r	.	4d\]	.	2dd\]	.
.	.	.	.	8e\L	.	.	.
.	.	.	.	8f\J	.	.	.
.	.	.	.	1g	.	4cc\	.
.	.	.	.	.	.	4b-\	.
.	.	.	.	.	.	1a	-mens:
.	.	.	.	2f#i\	.	.	.
=81	=81	=81	=81	=81	=81	=81	=81
0r	.	0r	.	1g	-mens:	2r	.
.	.	.	.	.	.	2g/	O
.	.	.	.	[1c	O	2a/	.
.	.	.	.	.	.	[2g/	pi-
=82.	=82	=82.	=82	=82.	=82	=82.	=82
0r	.	0r	.	1c]	.	4g/]	.
.	.	.	.	.	.	8a/L	.
.	.	.	.	.	.	8b-/J	.
.	.	.	.	.	.	1cc	.
.	.	.	.	[1d	pi-	.	.
.	.	.	.	.	.	2b-\	.
=83	=83	=83	=83	=83	=83	=83	=83
0r	.	0r	.	1d]	.	2a/	.
.	.	.	.	.	.	4g/	.
.	.	.	.	.	.	4f/	.
.	.	.	.	1c#i	.	1e	.
=84.	=84	=84.	=84	=84.	=84	=84.	=84
1r	.	1r	.	1d	-a:	1d	-a:
1D	O	1A	O	1f	O	1dd	O
=85	=85	=85	=85	=85	=85	=85	=85
1G	dul-	1B-	dul-	1g	dul-	2.dd\	dul-
.	.	.	.	.	.	4cc\	.
2G\	.	1d	.	2g\	.	2b-\	.
[2D\	.	.	.	[2f\	.	[2a/	.
=86.	=86	=86.	=86	=86.	=86	=86.	=86
2D\]	.	2.A/	.	2f\]	.	4a/]	.
.	.	.	.	.	.	4b-\	.
2.A\	.	.	.	1e	.	2cc\	.
.	.	4B-\	.	.	.	.	.
.	.	2c\	.	.	.	2a/	.
4G\	.	.	.	.	.	.	.
4F\	.	2A/	.	2f\	.	[2dd\	.
4E\	.	.	.	.	.	.	.
=87	=87	=87	=87	=87	=87	=87	=87
0D	-cis	1d	.	1.f	.	2dd\]	.
.	.	.	.	.	.	1a	.
.	.	1A	.	.	.	.	.
.	.	.	.	4e\	.	[2a/	.
.	.	.	.	4d\	.	.	.
=88.	=88	=88.	=88	=88.	=88	=88.	=88
2.F\	O	2.A/	.	1c	-cis	4a/]	.
.	.	.	.	.	.	4b-\	.
.	.	.	.	.	.	2cc\	.
4G\	.	4B-\	.	.	.	.	.
2A\	.	2c\	.	1r	.	2a/	.
[2D\	dul-	2A/	.	.	.	[2dd\	.
=89	=89	=89	=89	=89	=89	=89	=89
4D\]	.	2.d\	.	0r	.	2dd\]	.
4E\	.	.	.	.	.	.	.
2F\	.	.	.	.	.	1a	.
.	.	4c\	.	.	.	.	.
1G	.	1B-	.	.	.	.	.
.	.	.	.	.	.	2g/	.
=90.	=90	=90.	=90	=90.	=90	=90.	=90
2D\	.	1A	.	[0d	O	2a/	.
1G	.	.	.	.	.	1b-	.
.	.	2G/	.	.	.	.	.
2F\	.	2A/	.	.	.	[2a/	.
=91	=91	=91	=91	=91	=91	=91	=91
1G	.	2.B-\	.	0d]	.	2a/]	.
.	.	.	.	.	.	2g/	.
.	.	4A/	.	.	.	.	.
2D\	.	1A	.	.	.	2a/	.
[2G\	.	.	.	.	.	[2b-\	.
=92.	=92	=92.	=92	=92.	=92	=92.	=92
2G\]	.	2G/	.	0d	dul-	4b-\]	.
.	.	.	.	.	.	4cc\	.
2F\	.	2A/	.	.	.	1a	.
1G	.	2.B-\	.	.	.	.	.
.	.	.	.	.	.	2g/	.
.	.	4c\	.	.	.	.	.
=93	=93	=93	=93	=93	=93	=93	=93
0D	-cis	2A/	.	2d\	.	1a	-cis
.	.	2.d\	.	2.f\	.	.	.
.	.	.	.	.	.	2r	.
.	.	4c\	.	4e\	.	.	.
.	.	4B-\	.	2f\	.	[2dd\	Ma-
.	.	4A/	.	.	.	.	.
=94.	=94	=94.	=94	=94.	=94	=94.	=94
2r	.	2G/	.	2g\	.	4dd\]	.
.	.	.	.	.	.	4cc\	.
2D\	Ma-	2F/	-cis	2d\	-cis	4b-\	.
.	.	.	.	.	.	4a/	.
2E-i\	.	1B-	Ma-	2r	.	2g/	.
2D\	.	.	.	2d\	Ma-	2f/	.
=95	=95	=95	=95	=95	=95	=95	=95
2.BB-/	-ri-	1.d	-ri-	1f	-ri-	1.b-	-ri-
4C/	.	.	.	.	.	.	.
4D\	.	.	.	2.f\	-a.	.	.
4E\	.	.	.	.	.	.	.
2F\	.	[2c\	.	.	.	[2a/	.
.	.	.	.	4e\	.	.	.
=96.	=96	=96.	=96	=96.	=96	=96.	=96
2G\	.	4c\]	.	2d\	.	2a/]	.
.	.	4B-\	.	.	.	.	.
2E\	.	4A/	.	2c\	.	2.g/	.
.	.	4G/	.	.	.	.	.
1D	.	1A	.	1d	Ma-	.	.
.	.	.	.	.	.	4f#i/	.
.	.	.	.	.	.	2f#i/	.
=97	=97	=97	=97	=97	=97	=97	=97
[0GGl	-a.	[0Gl	-a.	0d	-ri-	[0gl	-a.
=98.	=98	=98.	=98	=98.	=98	=98.	=98
0GG]	.	0G]	.	0dl	-a.	0g]	.
==	==	==	==	==	==	==	==
*-	*-	*-	*-	*-	*-	*-	*-
!!!RDF**kern: l=long note in original notation
!!!RDF**kern: i=editorial accidental
!!!ENC:	Chris Gage 10-16-2013
!!!END:	2015/06/16/
!!!EED:	Jesse Rodin
!!!EEV:	2015/06/17/
!!!ONB:	Translated from MusicXML and edited on 2015/06/17/ by Craig Sapp
!!muse2ps: C^@{COM}^i2I150v90,90,90,130c145z18
